!!!!SEGMENT: Ser2002-Aspice_Domine.krn
!!!id: Ser2002
!!!AGN: Motet
!!!SCT: Slim (1972)
!!!voices: 4
!!!COM: Claudin de Sermisy
!!!OTL: Aspice, Domine
**kern	**kern	**kern	**kern
*part4	*part3	*part2	*part1
*staff4	*staff3	*staff2	*staff1
*I"Bassus	*I"Tenor	*I"Altus	*I"Superius
*I'B	*I'T	*I'A	*I'S
*clefF4	*clefGv2	*clefGv2	*clefG2
*k[]	*k[]	*k[]	*k[]
*C:	*C:	*C:	*C:
*M2/1	*M2/1	*M2/1	*M2/1
*met(C|)	*met(C|)	*met(C|)	*met(C|)
!!section: Prima pars: Aspice, Domine
!!!OMD: Prima pars: Aspice, Domine
=1	=1	=1	=1
0r	0r	0A	0r
=2	=2	=2	=2
0r	1r	1A	0e
.	[1E	1G	.
=3	=3	=3	=3
0r	1E]	1.B	1g
.	1E	.	1g
.	.	2c	.
=4	=4	=4	=4
0r	1D	2.d	1.f
.	.	4c	.
.	1F	4A	.
.	.	4B	.
.	.	[2c	2f
=5	=5	=5	=5
1r	1G	2c]	0e
.	.	2B	.
[1AA	2.A	1c	.
.	4B	.	.
=6	=6	=6	=6
1AA]	4c	2r	1r
.	4d	.	.
.	1c	2A	.
1AA	.	1c	1e
.	4B	.	.
.	4A	.	.
=7	=7	=7	=7
1GG	4B	1d	0g
.	4A	.	.
.	4G	.	.
.	4F	.	.
[1C	4E	[1e	.
.	4D	.	.
.	[2G	.	.
=8	=8	=8	=8
2C]	2G]	2e]	1a
2D	2F#i	4d	.
.	.	4c	.
1E	1G	2.B	2.g
.	.	4c	4a
=9	=9	=9	=9
0r	2r	2d	2b
.	2E	2e	1cc
.	1G	1d	.
.	.	.	2b
=10	=10	=10	=10
2r	1A	0c	0cc
2AA	.	.	.
1C	2.G	.	.
.	4A	.	.
=11	=11	=11	=11
1D	2B	0r	1r
.	2.A	.	.
2.C	.	.	2r
.	4G	.	.
.	[2G	.	2cc
4D	.	.	.
=12	=12	=12	=12
2E	2G]	2r	2b
2F	1d	2A	2a
2E	.	2B	2g
2C	[2c	2c	2e
=13	=13	=13	=13
1D	2c]	2.F	1f
.	2B	.	.
.	.	4G	.
[1C	1c	2A	[1e
.	.	2G	.
=14	=14	=14	=14
1C]	0G	2r	0e_
.	.	2E	.
2r	.	2E	.
2E	.	2C	.
=15	=15	=15	=15
2E	2r	2.G	1e]
2C	2E	.	.
.	.	4A	.
1G	2E	2B	1r
.	2C	[2c	.
=16	=16	=16	=16
0r	1G	2c]	2r
.	.	2B	2e
.	1A	1c	2e
.	.	.	2c
=17	=17	=17	=17
2r	1G	1B	2.g
2E	.	.	.
.	.	.	4a
2E	4G	1e	2b
.	4F	.	.
2C	4G	.	[2cc
.	4A	.	.
=18	=18	=18	=18
1G	2.B	2d	2cc]
.	.	2e	2.b
.	8AL	.	.
.	8BJ	.	.
2A	2c	2f	.
.	.	.	4a
2F	2A	2d	[2a
=19	=19	=19	=19
1E	1B	1e	2a]
.	.	.	2g#i
1AA	2.A	1c	[1a
.	4G	.	.
=20	=20	=20	=20
0r	2F	2r	1a]
.	2.D	2d	.
.	.	2d	2r
.	4E	.	.
.	4F	2d	2a
.	4G	.	.
=21	=21	=21	=21
0r	1A	1c	2a
.	.	.	2a
.	1E	2B	1g
.	.	[2c	.
=22	=22	=22	=22
2r	0r	4c]	2e
.	.	4B	.
2A	.	4A	2.f
.	.	4G	.
2A	.	2F	.
.	.	.	4e
2A	.	[2c	4d
.	.	.	4c
=23	=23	=23	=23
1G	0r	2c]	1d
.	.	2B	.
2E	.	4c	1c
.	.	4B	.
[2F	.	4A	.
.	.	4G	.
=24	=24	=24	=24
4F]	2d	2A	0r
4D	.	.	.
2G	2d	2B	.
4F	2d	4A	.
4E	.	4G	.
4D	[2c	[2G	.
4C	.	.	.
=25	=25	=25	=25
1D	2c]	2G]	1r
.	2B	2F	.
1C	2.c	1G	2r
.	.	.	2g
.	4B	.	.
=26	=26	=26	=26
0r	1A	2r	1a
.	.	2c	.
.	1G	1d	1b
=27	=27	=27	=27
1r	2r	1e	1g
.	2G	.	.
2r	1A	1c	1r
2C	.	.	.
=28	=28	=28	=28
1D	1B	1r	0r
1E	[1G	2r	.
.	.	2B	.
=29	=29	=29	=29
1C	0G]	1c	1r
1r	.	1B	2r
.	.	.	2b
=30	=30	=30	=30
2r	2r	2r	2.cc
2C	2G	2e	.
.	.	.	4b
1C	1c	1e	2g
.	.	.	2a
=31	=31	=31	=31
[0G	1B	1d	1b
.	2d	[1B	2r
.	2d	.	2g
=32	=32	=32	=32
1G]	2d	1B]	2g
.	2e	.	2g
1r	2c	1r	2a
.	2d	.	2f
=33	=33	=33	=33
1r	2B	0r	1g
.	1c	.	.
2r	.	.	1e
2G	4B	.	.
.	4A	.	.
=34	=34	=34	=34
2G	1B	1r	1d
2G	.	.	.
2A	2c	2r	1r
2F	2A	2d	.
=35	=35	=35	=35
1G	1B	2d	0r
.	.	2d	.
1C	1G	2e	.
.	.	2c	.
=36	=36	=36	=36
1G	2r	1d	2r
.	2G	.	2b
1r	2G	1B	2b
.	2G	.	2b
=37	=37	=37	=37
0r	2A	1A	2cc
.	2F	.	2a
.	1G	2r	2b
.	.	2B	[2g
=38	=38	=38	=38
1G	1E	1c	2g]
.	.	.	4f#i
.	.	.	4e
1A	1D	2.d	1f#i
.	.	4c	.
=39	=39	=39	=39
1G	2r	4B	1g
.	.	4A	.
.	2d	2B	.
2r	2.e	2c	2r
2C	.	[2e	2g
.	4d	.	.
=40	=40	=40	=40
1F	2c	2e]	1a
.	2A	2d	.
[1E	1c	[1e	[1g
=41	=41	=41	=41
1E]	1B	1e]	0g_
1r	2r	[1e	.
.	2c	.	.
=42	=42	=42	=42
1r	2c	2e]	1g]
.	2c	2e	.
1G	[1B	2e	1r
.	.	2e	.
=43	=43	=43	=43
2G	2B]	2.d	1r
2G	4A	.	.
.	4G	4e	.
1F	1A	2f	1cc
.	.	4c	.
.	.	4d	.
=44	=44	=44	=44
1E	1G	4e	2cc
.	.	4f	.
.	.	4g	2cc
.	.	4e	.
1D	2.d	1f	2b
.	.	.	2a
.	4c	.	.
=45	=45	=45	=45
0E	2B	0e	2g
.	2A	.	1a
.	1B	.	.
.	.	.	2g#i
=46	=46	=46	=46
0AA	[0A	1c	1.a
.	.	1r	.
.	.	.	2g
=47	=47	=47	=47
1r	0A]	1A	2f
.	.	.	2e
1AA	.	[1c	[1e
=48	=48	=48	=48
1.C	0r	2c]	1e]
.	.	2B	.
.	.	2A	1r
2BB	.	2G	.
=49	=49	=49	=49
1AA	1E	2A	0r
.	.	1c	.
[1GG	[1G	.	.
.	.	4B	.
.	.	4A	.
=50	=50	=50	=50
1GG]	2G]	2B	1r
.	2F	1d	.
1AA	1E	.	[1a
.	.	2c#i	.
=51	=51	=51	=51
0r	1D	4d	1a]
.	.	4e	.
.	.	4f	.
.	.	4d	.
.	[1A	1e	[1cc
=52	=52	=52	=52
0r	1A]	2r	2cc]
.	.	2e	2b
.	1r	1f	1a
=53	=53	=53	=53
0r	2r	2.e	1g
.	2E	.	.
.	.	4d	.
.	1F	2c	1a
.	.	2A	.
=54	=54	=54	=54
2r	1E	2B	0r
2E	.	2.e	.
1F	2r	.	.
.	.	4d	.
.	[2A	[2d	.
=55	=55	=55	=55
2E	2A]	2d]	2r
2C	1G	1c	2e
1D	.	.	1f
.	2F	2B	.
=56	=56	=56	=56
0C	0G	1c	[0e
.	.	2r	.
.	.	2G	.
=57	=57	=57	=57
2r	1r	2G	0e]
2C	.	2G	.
2C	2r	1c	.
2C	2G	.	.
=58	=58	=58	=58
1E	2G	1B	2r
.	2G	.	2e
1AA	1c	[1e	2e
.	.	.	2e
=59	=59	=59	=59
1E	1B	2e]	1g
.	.	2e	.
1F	1A	2c	1a
.	.	2d	.
=60	=60	=60	=60
2.E	2.c	0e	1g
4D	4B	.	.
2C	2A	.	[1cc
2BB	[2G	.	.
=61	=61	=61	=61
1AA	2G]	1r	1cc]
.	2F#i	.	.
2GG	[1G	2r	2.b
[2G	.	2d	.
.	.	.	4a
=62	=62	=62	=62
2G]	2G]	2d	2b
2F#i	2A	2d	2.a
2G	2B	2e	.
.	.	.	4g
2E	2G	2c	[2g
=63	=63	=63	=63
1D	1A	1d	2g]
.	.	.	2f#i
[1GG	1G	[1B	1g
=64	=64	=64	=64
1GG]	2d	1B]	2r
.	2d	.	2g
1r	2d	1G	2g
.	2e	.	2g
=65	=65	=65	=65
0r	2c	0r	2a
.	2d	.	2f
.	2B	.	1g
.	[2c	.	.
=66	=66	=66	=66
2r	2c]	0r	1e
2G	4B	.	.
.	4A	.	.
2G	2B	.	1d
2G	2B	.	.
=67	=67	=67	=67
2A	2c	2r	0r
2F	2A	2d	.
1G	1B	2d	.
.	.	2d	.
=68	=68	=68	=68
1C	1G	2e	1r
.	.	2c	.
1G	2r	1d	1b
.	2G	.	.
=69	=69	=69	=69
0r	2G	1B	2b
.	2G	.	2b
.	2A	1A	2cc
.	2F	.	2a
=70	=70	=70	=70
1r	1G	2r	2b
.	.	2B	1g
1G	1E	1c	.
.	.	.	4f#i
.	.	.	4e
=71	=71	=71	=71
1A	1D	2.d	1f#i
.	.	4c	.
1G	2r	4B	1g
.	.	4A	.
.	2d	2B	.
=72	=72	=72	=72
2r	2.e	2c	2r
2C	.	1e	2g
.	4d	.	.
1F	2c	.	1a
.	2A	2d	.
=73	=73	=73	=73
0E	1c	0e	[0g
.	1B	.	.
=74	=74	=74	=74
0r	2r	1.e	0g]
.	2c	.	.
.	2c	.	.
.	2c	2e	.
=75	=75	=75	=75
1G	1.B	2e	0r
.	.	2e	.
2G	.	2.d	.
2G	4A	.	.
.	4G	4e	.
=76	=76	=76	=76
1F	1A	2f	1cc
.	.	4c	.
.	.	4d	.
1E	1G	4e	2cc
.	.	4f	.
.	.	4g	2cc
.	.	4e	.
=77	=77	=77	=77
1D	2.d	1f	2b
.	.	.	2a
.	4c	.	.
[1E	2B	[1e	2g
.	2A	.	[2a
=78	=78	=78	=78
1E]	1B	1e]	2a]
.	.	.	2g#i
[1AA	[1A	1c	[1a
=79	=79	=79	=79
1AA]	1A]	2r	1a]
.	.	2e	.
2r	1r	2f	2r
2E	.	[2e	2g
=80	=80	=80	=80
1F	2r	2e]	1a
.	2A	2d	.
[1E	1c	[1e	[1g
=81	=81	=81	=81
1E]	1B	1e]	0g_
1r	2r	[1e	.
.	2c	.	.
=82	=82	=82	=82
1r	2c	2e]	1g]
.	2c	2e	.
1G	[1B	2e	1r
.	.	2e	.
=83	=83	=83	=83
2G	2B]	2.d	1r
2G	4A	.	.
.	4G	4e	.
1F	1A	2f	1cc
.	.	4c	.
.	.	4d	.
=84	=84	=84	=84
1E	1G	4e	2cc
.	.	4f	.
.	.	4g	2cc
.	.	4e	.
1D	2.d	1f	2b
.	.	.	2a
.	4c	.	.
=85	=85	=85	=85
0E	2B	0e	2g
.	2A	.	1a
.	1B	.	.
.	.	.	2g#i
=86	=86	=86	=86
00AAl	00Al	00el	00al
==	==	==	==
*-	*-	*-	*-
!!!system-decoration: [*]
!!!RDF**kern: i = editorial accidental
!!!RDF**kern: l = terminal long
!!!ENC: Benjamin Ory
!!!END: 2021/1/8
!!!EED: Benjamin Ory
!!!EEV: 2021/04/27
!!!YEC: Copyright 2021 Benjamin Ory, All Rights Reserved
!!!ONB: Translated from MusicXML on 2021/04/27
